X:1
T:Title
%%score 1 2
L:1/8
Q:1/4=95
M:4/4
K:G
V:1 treble nm="Grand Piano, Soprano"
V:2 bass nm="Choir Pad, Bear the Cross, Roy Werner"
V:1
 [DB][DB][^C_B][D=B] [B,G][B,D][_B,C][=B,D] | [CE][C^D][CE][CA] [CE]4 | %2
w: By~Roy~J.~Werner * * * * * * *||
 [CF][CE][CF][B,G] [CA][CF][CE][CD] | [B,G][A,F][B,G][Ec] [DB]4 | %4
w: ||
 [DB][DB][^C_B][D=B] [B,G][B,D][_B,C][=B,D] | [CE][C^D][CE][CA] [Ec]4 | %6
w: ||
 [Fc][DA][CF][CE] [CD][CE][CF][Ec] | [DB]2 [CA]2 [B,G]4 | [Gd]2 [GB]2 [Gd]3 [B,D] | %9
w: |||
 [B,D][B,E][DF][DG] [DG]2 [DF]2 | [Fc]2 [FA]2 [Dc]3 [CF] | [CE][B,D][B,G][Ec] [DB]4 | %12
w: |||
 [Gd]2 [GB]2 [Gd]3 [DB] | [=FA][FG][FA][FB] [Fd]2 [Ec]2 | [Fc][DA][CF][CE] [CD][CE][CF][Ec] | %15
w: |||
 [DB]2 [CA]2 [B,G]4- | [B,G]4 z4 |] %17
w: ||
V:2
 G,G,G,G, G,G,G,G, | [C,G,][C,F,][C,G,][C,E,] [C,A,]4 | %2
 [D,A,][D,A,][D,A,][D,G,] [D,F,][D,A,][E,A,][F,A,] | G,G,G,G, G,4 | G,G,G,G, G,G,G,G, | %5
 [C,G,][C,F,][C,G,][C,E,] [A,,A,]4 | [D,A,][D,C][D,A,][D,G,] [D,F,][D,G,][D,A,][D,F,] | %7
 [D,F,]2 D,2 [G,,D,]4 | [G,B,]2 [G,D]2 [G,B,]3 G, | G,G,[G,B,][G,B,] [A,C]2 [A,C]2 | %10
 [D,D]2 [D,D]2 [D,A,]3 [D,A,] | G,G,G,G, G,4 | [G,B,]2 [G,D]2 [G,B,]3 G, | %13
 G,G,G,G, [C,^G,]2 [C,A,]2 | [D,A,][D,C][D,A,][D,G,] [D,F,][D,G,][D,A,][D,F,] | %15
 [D,F,]2 D,2 [G,,D,]4- | [G,,D,]4 z4 |] %17

